www/assets/icons/access_alarms.svg

<svg width="24" height="24" viewBox="0 0 24 24" xmlns="http://www.w3.org/2000/svg" fill='currentColor'><path d="M22 5.80002L17.4 1.90002L16.1 3.40002L20.7 7.30002L22 5.80002ZM7.9 3.50002L6.6 2.00002L2 5.80002L3.3 7.30002L7.9 3.50002ZM12.5 8.10002H11V14.1L15.7 17L16.5 15.8L12.5 13.4V8.10002ZM12 4.10002C7 4.10002 3 8.10002 3 13.1C3 18.1 7 22.1 12 22.1C17 22.1 21 18.1 21 13.1C21 8.10002 17 4.10002 12 4.10002ZM12 20.1C8.1 20.1 5 17 5 13.1C5 9.20002 8.1 6.10002 12 6.10002C15.9 6.10002 19 9.20002 19 13.1C19 17 15.9 20.1 12 20.1Z"/></svg>

<svg xmlns="http://www.w3.org/2000/svg" width="24" height="24" viewBox="0 0 24 24" fill='currentColor'><path d="m22 5.8-4.6-3.9-1.3 1.5 4.6 3.9zM7.9 3.5 6.6 2 2 5.8l1.3 1.5zm4.6 4.6H11v6l4.7 2.9.8-1.2-4-2.4zm-.5-4c-5 0-9 4-9 9s4 9 9 9 9-4 9-9-4-9-9-9m0 16c-3.9 0-7-3.1-7-7s3.1-7 7-7 7 3.1 7 7-3.1 7-7 7"/></svg>
